X: 1
T: Clare
M: 4/4
L: 1/8
R: reel
K: Gmaj
d|:BGAG EGD2|EAAG A2GA|BGAG EGD2|1EG~G2 EGGA:|2EG~G2 EGGD||
~G2 Bd eddB|GBdB BAAB|G2(3Bcd edBe|dBAc BGGD|
~G2 Bd eddB|GBdB BAAB|G2(3Bcd edef|gbaf gedc||
